X:99
T:One Kinky Little Kitten
R:reel
C: 2001, 2010 L.E. McCullough 
M:4/4
L:1/8
K:Gmajor
GA|:~B3A ~A2GA|B~g3 edBA|B~g3 egdB|DGBG ~A2GA|
~B3A ~A2GA|B~g3 edBA|B~g3 egag|1edBA ~G3A:|2edBA ~G3d|| 
|:~e3d edBA|FG~G2 (3BAG Bd|~e3g edeg|~a2gb aged|
~e3g edBA|FG~G2 (3BAG Bd|eBDG Bdgb|1agbg ed (3Bcd:|2agbg edBA|| 
<end>
<start>
